resources/haticons/SVG/link2.svg

<!-- Generated by IcoMoon.io -->
<svg version="1.1" xmlns="http://www.w3.org/2000/svg" width="24" height="24" viewBox="0 0 24 24">
<title>link2</title>
<path d="M17.016 6.984q2.063 0 3.516 1.477t1.453 3.539-1.453 3.539-3.516 1.477h-4.031v-1.922h4.031q1.266 0 2.18-0.914t0.914-2.18-0.914-2.18-2.18-0.914h-4.031v-1.922h4.031zM8.016 12.984v-1.969h7.969v1.969h-7.969zM3.891 12q0 1.266 0.914 2.18t2.18 0.914h4.031v1.922h-4.031q-2.063 0-3.516-1.477t-1.453-3.539 1.453-3.539 3.516-1.477h4.031v1.922h-4.031q-1.266 0-2.18 0.914t-0.914 2.18z"></path>
</svg>

<svg xmlns="http://www.w3.org/2000/svg" width="24" height="24"><path d="M17.016 6.984q2.063 0 3.516 1.477T21.985 12t-1.453 3.539-3.516 1.477h-4.031v-1.922h4.031q1.266 0 2.18-.914T20.11 12t-.914-2.18-2.18-.914h-4.031V6.984h4.031zm-9 6v-1.969h7.969v1.969H8.016zM3.891 12q0 1.266.914 2.18t2.18.914h4.031v1.922H6.985q-2.063 0-3.516-1.477T2.016 12t1.453-3.539 3.516-1.477h4.031v1.922H6.985q-1.266 0-2.18.914T3.891 12z"/></svg>
